X: 8
T: Lady Betty Cochrans Reel
%R: reel
B: "Twenty Four Favourite Dances for the Year 1783", Thomas Straight, ed. p.4 #2
F: http://www.vwml.org/browse/browse-collections-dance-tune-books/browse-straights1783
Z: 2014 John Chambers <jc:trillian.mit.edu>
M: C
L: 1/8
K: C
G |\
E2CE GcGE | FD Td>c dAAc |\
Cc Ec GA ca | gcfd ecc :||: e | c2e/d/c gc e/d/c |
Gc e/d/c adde |[1 c2 e/d/c gc e/d/c | Gc B/c/d ecc2 :|\
[2 cdAc GAEc | GAcd ecc |]
% - - - - - - - - - - Dance description: - - - - - - - - - -
%%begintext align
%% 1st Lady set to the 2d Gent & turn the 3d Gent
%% & come up into her place the 1st Gent do the
%% same & stop at the bottom set 3 & 3 top &
%% bottom the same sideways
%%endtext

%%sep 1 1 500
%%sep 1 1 500
